assets/Bookmark/Flat/bookmark_flat.svg

<svg width="32" height="32" viewBox="0 0 32 32" fill="none" xmlns="http://www.w3.org/2000/svg">
<path d="M29.0446 10.61C29.4946 11.06 29.4946 11.79 29.0446 12.24L11.6146 29.66C10.8346 30.44 9.51464 29.77 9.66464 28.68L10.4946 22.79C10.5946 22.03 9.95464 21.38 9.19464 21.49L3.32464 22.32C2.22464 22.48 1.55464 21.15 2.34464 20.36L19.7646 2.96C20.2146 2.51 20.9446 2.51 21.3946 2.96L29.0446 10.61ZM21.6746 7.49C20.8946 8.27 20.8946 9.54 21.6746 10.32C22.4546 11.1 23.7246 11.1 24.5046 10.32C25.2846 9.54 25.2846 8.27 24.5046 7.49C23.7246 6.71 22.4546 6.71 21.6746 7.49Z" fill="#F8312F"/>
<path d="M18.8146 15.1L19.3446 13.54C19.4546 13.21 19.1346 12.89 18.8046 13L17.2246 13.51C17.0946 13.56 16.9346 13.53 16.8246 13.44L15.5446 12.43C15.2646 12.21 14.8546 12.4 14.8546 12.76L14.8446 14.44C14.8446 14.59 14.7546 14.73 14.6246 14.81L13.2046 15.61C12.8846 15.79 12.9246 16.27 13.2646 16.39L15.0346 17.03C15.1546 17.08 15.2546 17.17 15.2946 17.29L15.9346 19.06C16.0646 19.4 16.5346 19.44 16.7146 19.12L17.5146 17.7C17.5846 17.56 17.7346 17.48 17.8846 17.48L19.5646 17.47C19.9146 17.47 20.1146 17.06 19.8946 16.78L18.8846 15.5C18.7946 15.39 18.7646 15.24 18.8146 15.1Z" fill="#F7A7B8"/>
<path d="M23.9946 6.61V2.5C23.9946 2.23 24.2246 2 24.4946 2C24.7746 2 24.9946 2.23 24.9946 2.5V6.42257C25.1646 6.36604 25.3598 6.40519 25.4946 6.54002C25.619 6.66437 25.662 6.84013 25.6235 7H29.4946C29.7646 7 29.9946 7.22 29.9946 7.5C29.9946 7.77 29.7646 8 29.4946 8H25.3846C25.2088 8 25.0499 7.90666 24.9605 7.7642L24.9046 7.82002C24.7146 8.01002 24.4046 8.01002 24.2146 7.82002C24.0246 7.63002 24.0246 7.32002 24.2146 7.13002L24.2824 7.06225C24.1143 6.98278 23.9946 6.81201 23.9946 6.61Z" fill="#D3883E"/>
</svg>

<svg xmlns="http://www.w3.org/2000/svg" width="32" height="32" fill="none"><path fill="#F8312F" d="M29.045 10.61c.45.45.45 1.18 0 1.63l-17.43 17.42c-.78.78-2.1.11-1.95-.98l.83-5.89c.1-.76-.54-1.41-1.3-1.3l-5.87.83c-1.1.16-1.77-1.17-.98-1.96l17.42-17.4c.45-.45 1.18-.45 1.63 0l7.65 7.65Zm-7.37-3.12c-.78.78-.78 2.05 0 2.83.78.78 2.05.78 2.83 0 .78-.78.78-2.05 0-2.83-.78-.78-2.05-.78-2.83 0Z"/><path fill="#F7A7B8" d="m18.815 15.1.53-1.56a.43.43 0 0 0-.54-.54l-1.58.51c-.13.05-.29.02-.4-.07l-1.28-1.01a.424.424 0 0 0-.69.33l-.01 1.68c0 .15-.09.29-.22.37l-1.42.8c-.32.18-.28.66.06.78l1.77.64c.12.05.22.14.26.26l.64 1.77c.13.34.6.38.78.06l.8-1.42c.07-.14.22-.22.37-.22l1.68-.01c.35 0 .55-.41.33-.69l-1.01-1.28a.411.411 0 0 1-.07-.4Z"/><path fill="#D3883E" d="M23.995 6.61V2.5c0-.27.23-.5.5-.5.28 0 .5.23.5.5v3.923a.489.489 0 0 1 .628.577h3.872c.27 0 .5.22.5.5 0 .27-.23.5-.5.5h-4.11a.503.503 0 0 1-.425-.236l-.055.056a.489.489 0 0 1-.69-.69l.067-.068a.5.5 0 0 1-.287-.452Z"/></svg>
